X:480
T: UND IN DEM SCHNEEGEBIRGE
N: E0429D
O: Europa, Mitteleuropa, Deutschland, Schlesien, Breslau
R: Liebes - Lied
M: 3/4
L: 1/8
K: F
F | FAc2c2 | d2c2z
B | AGFAcA | G4z
G | BBG2G2 | FAc2z
f | cBA2G2 | F4z

